X:858
T:Reel 858
M:4/4
K:Gmaj
L:1/8
d|B2dB eBcB|AGed cBAB|BddB cBAG|FDDC DGGB|BddB cBAG|ABgB e2dB|cdef gfge|dcBG A2G|d|gdgd BdBd|cAeA cAAd|gdBd gdBd|egfa g2g2|gdBd gdBd|cBAG FGAF|GABc dgfe|dcBA BGG|
